X:1
T:Title
%%score ( 1 2 ) { 3 | 4 }
L:1/8
Q:1/4=110
M:2/2
K:C
V:1 treble nm="Grand Piano, Soprano"
V:2 treble 
V:3 bass nm="Choir Pad, Edgbaston, 11.11.11.11"
V:4 bass 
V:1
 C2 [CE]2 [DG]2 [EG]2 | A4 z4 | [G_B]2 [FA]2 [FG]2 [EG]2 | F8 | [CE]2 [DG]2 [Ec]2 [Ec]2 | %5
w: By~Timothy~Richard~Matthews,~1874 * * *|||||
 [Gd]4 [Ec]4 | [Gc]2 [GB]2 [GA]2 [^FA]2 | G8 | [EG]2 [EG]2 [EA]2 [EA]2 | F4 z4 | %10
w: |||||
 [CE]2 [CA]2 [CA]2 [Fd]2 | [EB]8 | [EB]2 [EB]2 [Gd]2 [Gd]2 | [Ge]4 [Gc]4 | %14
w: ||||
 [FA]2 [Gc]2 [Dd]2 [Fd]2 | [Ec]8 |] %16
w: ||
V:2
 x8 | C2 D2 [EG]4 | x8 | x8 | x8 | x8 | x8 | x8 | x8 | D2 C2 [B,E]4 | x8 | x8 | x8 | x8 | x8 | %15
 x8 |] %16
V:3
 E,2 G,2 D2 C2 | A,2 B,2[K:treble] C4 | C2 C2 C2 _B,2 | A,8 | G,2 D2 C2 C2 | C2 B,2 C4 | %6
 C2 D2 D2 C2 | B,8 | G,2 G,2 C2 C2 | A,4 ^G,4 | A,2 A,2 A,2 A,2 | ^G,8 | A,2 C2 B,2 B,2 | C4 C4 | %14
 C2 C2 C2 B,2 | C8 |] %16
V:4
 C,2 C,2 B,,2 C,2 | F,4 E,4 | F,2 F,2 C,2 C,2 | F,8 | C,2 B,,2 A,,2 A,2 | G,4 C,4 | %6
 D,2 G,2 D,2 D,2 | G,,8 | C,2 C,2 A,,2 A,,2 | D,4 E,4 | z4 F,2 D,2 | E,8 | z2 A,2 G,2 G,2 | %13
 C,4 E,4 | F,2 E,2 G,2 G,2 | C,8 |] %16

